src/images/rank.svg

<svg width="20" height="21" viewBox="0 0 20 21" fill="none" xmlns="http://www.w3.org/2000/svg">
<path d="M19 17H17V14C17 13.7347 16.8946 13.4804 16.7071 13.2929C16.5196 13.1053 16.2652 13 16 13H11V10.29L12.13 10.88C12.2948 10.9662 12.4804 11.0047 12.6658 10.9913C12.8513 10.9778 13.0294 10.9129 13.18 10.8038C13.3307 10.6947 13.4479 10.5458 13.5185 10.3738C13.5892 10.2018 13.6105 10.0134 13.58 9.82996L13.18 7.45996L14.9 5.76996C15.0303 5.64274 15.1233 5.48237 15.1692 5.30614C15.215 5.12991 15.2118 4.94452 15.16 4.76996C15.102 4.59223 14.9954 4.43431 14.8522 4.31412C14.7091 4.19392 14.5351 4.11627 14.35 4.08996L12 3.71996L10.9 1.55996C10.8181 1.39089 10.6903 1.2483 10.5311 1.14853C10.3719 1.04876 10.1879 0.99585 10 0.99585C9.81214 0.99585 9.62809 1.04876 9.46891 1.14853C9.30974 1.2483 9.18188 1.39089 9.1 1.55996L8 3.71996L5.61 4.06996C5.42492 4.09627 5.25092 4.17392 5.10775 4.29412C4.96458 4.41431 4.85796 4.57223 4.8 4.74996C4.74819 4.92452 4.74502 5.10991 4.79084 5.28614C4.83666 5.46237 4.92973 5.62274 5.06 5.74996L6.82 7.45996L6.42 9.82996C6.38952 10.0134 6.4108 10.2018 6.48145 10.3738C6.5521 10.5458 6.66933 10.6947 6.81996 10.8038C6.9706 10.9129 7.14866 10.9778 7.33415 10.9913C7.51964 11.0047 7.70521 10.9662 7.87 10.88L9 10.29V13H4C3.73478 13 3.48043 13.1053 3.29289 13.2929C3.10536 13.4804 3 13.7347 3 14V17H1C0.734784 17 0.48043 17.1053 0.292893 17.2929C0.105357 17.4804 0 17.7347 0 18V20C0 20.2652 0.105357 20.5195 0.292893 20.7071C0.48043 20.8946 0.734784 21 1 21C1.26522 21 1.51957 20.8946 1.70711 20.7071C1.89464 20.5195 2 20.2652 2 20V19H6V20C6 20.2652 6.10536 20.5195 6.29289 20.7071C6.48043 20.8946 6.73478 21 7 21C7.26522 21 7.51957 20.8946 7.70711 20.7071C7.89464 20.5195 8 20.2652 8 20V18C8 17.7347 7.89464 17.4804 7.70711 17.2929C7.51957 17.1053 7.26522 17 7 17H5V15H15V17H13C12.7348 17 12.4804 17.1053 12.2929 17.2929C12.1054 17.4804 12 17.7347 12 18V20C12 20.2652 12.1054 20.5195 12.2929 20.7071C12.4804 20.8946 12.7348 21 13 21C13.2652 21 13.5196 20.8946 13.7071 20.7071C13.8946 20.5195 14 20.2652 14 20V19H18V20C18 20.2652 18.1054 20.5195 18.2929 20.7071C18.4804 20.8946 18.7348 21 19 21C19.2652 21 19.5196 20.8946 19.7071 20.7071C19.8946 20.5195 20 20.2652 20 20V18C20 17.7347 19.8946 17.4804 19.7071 17.2929C19.5196 17.1053 19.2652 17 19 17ZM10 7.62996C9.83586 7.63078 9.67444 7.67199 9.53 7.74996L8.73 8.16996L8.88 7.26996C8.90624 7.11076 8.89357 6.94758 8.84307 6.79435C8.79257 6.64111 8.70574 6.50237 8.59 6.38996L7.94 5.74996L8.84 5.61996C9.00101 5.59845 9.15436 5.53803 9.28678 5.44395C9.4192 5.34986 9.52671 5.22493 9.6 5.07996L10 4.25996L10.4 5.07996C10.4733 5.22493 10.5808 5.34986 10.7132 5.44395C10.8456 5.53803 10.999 5.59845 11.16 5.61996L12.06 5.74996L11.41 6.38996C11.2943 6.50237 11.2074 6.64111 11.1569 6.79435C11.1064 6.94758 11.0938 7.11076 11.12 7.26996L11.27 8.16996L10.47 7.74996C10.3256 7.67199 10.1641 7.63078 10 7.62996Z" fill="#212329"/>
</svg>

<svg width="20" height="21" fill="none" xmlns="http://www.w3.org/2000/svg"><path d="M19 17h-2v-3a1 1 0 0 0-1-1h-5v-2.71l1.13.59a1 1 0 0 0 1.45-1.05l-.4-2.37 1.72-1.69a1 1 0 0 0 .26-1 1 1 0 0 0-.81-.68L12 3.72l-1.1-2.16a1 1 0 0 0-1.8 0L8 3.72l-2.39.35a1 1 0 0 0-.81.68 1 1 0 0 0 .26 1l1.76 1.71-.4 2.37a1 1 0 0 0 1.45 1.05L9 10.29V13H4a1 1 0 0 0-1 1v3H1a1 1 0 0 0-1 1v2a1 1 0 0 0 2 0v-1h4v1a1 1 0 0 0 2 0v-2a1 1 0 0 0-1-1H5v-2h10v2h-2a1 1 0 0 0-1 1v2a1 1 0 0 0 2 0v-1h4v1a1 1 0 0 0 2 0v-2a1 1 0 0 0-1-1zm-9-9.37a1 1 0 0 0-.47.12l-.8.42.15-.9a1 1 0 0 0-.29-.88l-.65-.64.9-.13a1 1 0 0 0 .76-.54l.4-.82.4.82a1 1 0 0 0 .76.54l.9.13-.65.64a1 1 0 0 0-.29.88l.15.9-.8-.42a1 1 0 0 0-.47-.12z" fill="#212329"/></svg>
